src/icons/ocaml.svg

<svg viewBox="0 0 24 24" xmlns="http://www.w3.org/2000/svg">
  <path
    d="M4.50996 3.27301C4.17855 3.27288 3.85036 3.33804 3.54414 3.46478C3.23792 3.59151 2.95967 3.77733 2.72529 4.01163C2.4909 4.24592 2.30496 4.5241 2.17811 4.83027C2.05125 5.13644 1.98596 5.4646 1.98596 5.79601V11.3C2.34696 11.17 2.86596 10.402 3.02896 10.215C3.31396 9.88801 3.36596 9.47201 3.50696 9.20901C3.82996 8.61201 3.88596 8.20001 4.61996 8.20001C4.96196 8.20001 5.09796 8.28001 5.32996 8.59001C5.48996 8.80601 5.76796 9.20501 5.89796 9.47201C6.04796 9.77901 6.29396 10.196 6.40096 10.28C6.48096 10.342 6.56096 10.39 6.63396 10.417C6.75296 10.461 6.85196 10.38 6.93096 10.317C7.03296 10.235 7.07596 10.07 7.17096 9.85001C7.30596 9.53301 7.45396 9.15301 7.53796 9.02001C7.68396 8.79001 7.73296 8.51901 7.88996 8.38701C8.12196 8.19201 8.42496 8.17901 8.50796 8.16201C8.97396 8.07001 9.18496 8.38701 9.41496 8.59201C9.56496 8.72501 9.76996 8.99501 9.91496 9.35701C10.029 9.64001 10.175 9.90101 10.235 10.064C10.294 10.222 10.438 10.474 10.524 10.777C10.601 11.052 10.81 11.263 10.889 11.393C10.889 11.393 11.01 11.733 11.747 12.043C11.907 12.11 12.229 12.219 12.421 12.289C12.741 12.405 13.051 12.39 13.446 12.343C13.727 12.343 13.88 11.935 14.008 11.609C14.083 11.416 14.156 10.864 14.205 10.707C14.253 10.554 14.141 10.437 14.236 10.302C14.348 10.146 14.414 10.138 14.478 9.93401C14.616 9.49801 15.414 9.47601 15.862 9.47601C16.236 9.47601 16.189 9.83901 16.822 9.71501C17.186 9.64301 17.536 9.76101 17.922 9.86401C18.246 9.95001 18.552 10.048 18.734 10.262C18.853 10.401 19.146 11.096 18.847 11.125C18.876 11.16 18.897 11.224 18.951 11.259C18.884 11.521 18.594 11.334 18.433 11.3C18.216 11.255 18.063 11.307 17.85 11.401C17.487 11.563 16.956 11.544 16.64 11.808C16.37 12.031 16.371 12.529 16.246 12.808C16.246 12.808 15.898 13.703 15.14 14.251C14.946 14.391 14.566 14.728 13.74 14.856C13.3758 14.9084 13.0071 14.9228 12.64 14.899C12.454 14.89 12.278 14.881 12.091 14.879C11.981 14.877 11.611 14.866 11.63 14.901L11.589 15.004L11.613 15.142C11.628 15.225 11.632 15.291 11.635 15.367C11.641 15.524 11.622 15.687 11.63 15.845C11.647 16.173 11.768 16.472 11.784 16.803C11.801 17.171 11.983 17.561 12.159 17.862C12.226 17.976 12.328 17.99 12.372 18.131C12.424 18.292 12.375 18.464 12.4 18.636C12.5 19.304 12.692 20.002 12.992 20.606C12.9944 20.6108 12.9971 20.6155 13 20.62C13.371 20.558 13.743 20.424 14.226 20.353C15.111 20.221 16.341 20.289 17.132 20.215C19.132 20.027 20.217 21.035 22.014 20.622V5.79601C22.014 5.12687 21.7481 4.48513 21.275 4.01198C20.8018 3.53883 20.1601 3.27301 19.491 3.27301H4.50996ZM3.60296 14.417C3.58796 14.417 3.57296 14.417 3.55696 14.42C3.39796 14.445 3.24396 14.5 3.14496 14.66C3.06496 14.79 3.03696 15.015 2.98096 15.165C2.91696 15.34 2.80496 15.503 2.70696 15.67C2.52696 15.975 2.20296 16.251 2.06296 16.549C2.03496 16.609 2.00996 16.679 1.98696 16.749V20.151C2.14996 20.179 2.31996 20.213 2.51096 20.264C3.91796 20.639 4.26096 20.671 5.64096 20.514L5.77096 20.496C5.87596 20.276 5.95796 19.528 6.02596 19.296C6.07996 19.118 6.15296 18.976 6.18096 18.796C6.20696 18.623 6.17796 18.459 6.16396 18.303C6.12396 17.91 6.44896 17.77 6.60396 17.433C6.74396 17.129 6.82396 16.782 6.93996 16.47C7.04996 16.172 7.22396 15.749 7.51896 15.598C7.48296 15.557 6.90196 15.538 6.74696 15.522C6.57924 15.507 6.41236 15.4836 6.24696 15.452C5.93296 15.388 5.59096 15.326 5.28196 15.252C4.96109 15.1583 4.64504 15.0489 4.33496 14.924C4.03696 14.786 3.83196 14.427 3.60296 14.417ZM9.33996 15.247C8.59996 15.396 8.36996 16.123 8.01996 16.698C7.82796 17.017 7.62396 17.288 7.47196 17.626C7.33196 17.938 7.34396 18.283 7.10396 18.55C6.86518 18.8169 6.68527 19.131 6.57596 19.472C6.55296 19.539 6.48796 20.248 6.41796 20.415L7.51896 20.337C8.54496 20.407 8.24896 20.801 9.85096 20.715L12.38 20.637C12.3127 20.4377 12.2366 20.2415 12.152 20.049C12.082 19.902 11.992 19.615 11.934 19.489C11.8463 19.3051 11.7429 19.1291 11.625 18.963C11.441 18.748 11.398 18.733 11.345 18.46C11.25 17.987 11.001 17.13 10.708 16.537C10.557 16.231 10.305 15.975 10.074 15.753C9.87396 15.558 9.41896 15.231 9.33996 15.248V15.247Z"
    fill="#FF9800"
  />
</svg>

<svg viewBox="0 0 24 24" xmlns="http://www.w3.org/2000/svg">
  <path d="m12.019 15.021.003-.008c-.005-.021-.006-.026-.003.008z" />
  <path
    d="M4.51 3.273a2.523 2.523 0 0 0-2.524 2.523V11.3c.361-.13.88-.898 1.043-1.085.285-.327.337-.743.478-1.006C3.83 8.612 3.886 8.2 4.62 8.2c.342 0 .478.08.71.39.16.216.438.615.568.882.15.307.396.724.503.808.08.062.16.11.233.137.119.044.218-.037.297-.1.102-.082.145-.247.24-.467.135-.317.283-.697.367-.83.146-.23.195-.501.352-.633.232-.195.535-.208.618-.225.466-.092.677.225.907.43.15.133.355.403.5.765.114.283.26.544.32.707.059.158.203.41.289.713.077.275.286.486.365.616 0 0 .121.34.858.65.16.067.482.176.674.246.32.116.63.101 1.025.054.281 0 .434-.408.562-.734.075-.193.148-.745.197-.902.048-.153-.064-.27.031-.405.112-.156.178-.164.242-.368.138-.436.936-.458 1.384-.458.374 0 .327.363.96.239.364-.072.714.046 1.1.149.324.086.63.184.812.398.119.139.412.834.113.863.029.035.05.099.104.134-.067.262-.357.075-.518.041-.217-.045-.37.007-.583.101-.363.162-.894.143-1.21.407-.27.223-.269.721-.394 1 0 0-.348.895-1.106 1.443-.194.14-.574.477-1.4.605a5.309 5.309 0 0 1-1.1.043c-.186-.009-.362-.018-.549-.02-.11-.002-.48-.013-.461.022l-.041.103.024.138c.015.083.019.149.022.225.006.157-.013.32-.005.478.017.328.138.627.154.958.017.368.199.758.375 1.059.067.114.169.128.213.269.052.161.003.333.028.505.1.668.292 1.366.592 1.97a.16.16 0 0 0 .008.014c.371-.062.743-.196 1.226-.267.885-.132 2.115-.064 2.906-.138 2-.188 3.085.82 4.882.407V5.796a2.523 2.523 0 0 0-2.523-2.523zm-.907 11.144c-.015 0-.03 0-.046.003-.159.025-.313.08-.412.24-.08.13-.108.355-.164.505-.064.175-.176.338-.274.505-.18.305-.504.581-.644.879-.028.06-.053.13-.076.2v3.402c.163.028.333.062.524.113 1.407.375 1.75.407 3.13.25l.13-.018c.105-.22.187-.968.255-1.2.054-.178.127-.32.155-.5.026-.173-.003-.337-.017-.493-.04-.393.285-.533.44-.87.14-.304.22-.651.336-.963.11-.298.284-.721.579-.872-.036-.041-.617-.06-.772-.076a5.064 5.064 0 0 1-.5-.07c-.314-.064-.656-.126-.965-.2a10.15 10.15 0 0 1-.947-.328c-.298-.138-.503-.497-.732-.507zm5.737.83c-.74.149-.97.876-1.32 1.451-.192.319-.396.59-.548.928-.14.312-.128.657-.368.924a2.55 2.55 0 0 0-.528.922c-.023.067-.088.776-.158.943l1.101-.078c1.026.07.73.464 2.332.378l2.529-.078a7.127 7.127 0 0 0-.228-.588c-.07-.147-.16-.434-.218-.56a3.536 3.536 0 0 0-.309-.526c-.184-.215-.227-.23-.28-.503-.095-.473-.344-1.33-.637-1.923-.151-.306-.403-.562-.634-.784-.2-.195-.655-.522-.734-.505z"
    fill="#ff9800"
  />
</svg>
